X:1
T:Title
%%score [ 1 2 ]
L:1/8
Q:1/4=96
M:none
K:C
V:1 treble nm="Soprano"
V:2 treble nm="Alto"
V:1
 z16 | z8 d8 | B8 c8 | B4 G4- G2 A2 B2 G2 | A4 A4 G8 | z4 c4 B6 AG | A4 A4 G4 E2 F2 | %7
w: |Be-|ne- di-|ctus qui * * * *|* ve- nit|in no- * *|mi- ne Do- * *|
 G2 E2 A6 G2 G4- | G4 ^F4 G8- | G8 z4 c4 | B6 AG A4 A4 | G8 z4 d4 | c6 BA B4 B4 | A8 z4 G4 | %14
w: |* mi- ni,|* in|no- * * * mi-|ne in|no- * * * mi-|ne in|
 F6 ED E4 E4 | D4 A4 G6 FE | F4 F4 E4 c2 B2 | A2 G2 G8 ^F4 | G16 |] %19
w: no- * * * mi-|ne in no- * *|* mi- ne Do- *|* * * mi-|ni.|
V:2
 D8 B,8 | C8 B,4 G,4- | G,2 A,2 B,2 G,2 A,4 A,4 | G,8 z4 G4 | F6 ED E4 E4 | D4 C2 D2 E2 C2 G4- | %6
w: Be- ne-|di- ctus qui|* * * * * ve-|nit in|no- * * * mi-|ne Do- * * * *|
 G4 ^F4 G8 | z4 C4 B,6 A,G, | A,4 A,4 G,4 C2 D2 | E2 D2 C2 B,2 A,6 A,2 | G,4 G4 F6 ED | E4 E4 D8 | %12
w: * mi- ni,|in no- * *|* mi- ne Do- *|* * * * * mi-|ni, in no- * *|* mi- ne|
 A,4 C4 G,4 G4 | F6 ED E4 E4 | D8 z4 G4 | F6 ED E4 E4 | D4 A,6 G,2 A,2 B,2 | %17
w: Do- mi- ni, in|no- * * * mi-|ne in|no- * * * mi-|ne Do- * * *|
 C2 B,2 A,2 G,2 A,4 A,4 | G,16 |] %19
w: * * * * * mi-|ni.|

